src/assets/admin_work.svg

<svg fill="none" height="70" viewBox="0 0 80 70" width="80" xmlns="http://www.w3.org/2000/svg" xmlns:xlink="http://www.w3.org/1999/xlink"><clipPath id="a"><path d="m0 0h79.4595v70h-79.4595z"/></clipPath><g clip-path="url(#a)" fill="#fe860c"><path d="m39.7302 17.5c4.5712 0 8.277-3.2646 8.277-7.2917 0-4.02708-3.7058-7.29167-8.277-7.29167-4.5713 0-8.2771 3.26459-8.2771 7.29167 0 4.0271 3.7058 7.2917 8.2771 7.2917z"/><path d="m72.8376 46.6666h-3.3108v-8.75c0-.7735-.3489-1.5154-.9697-2.0624-.6209-.5469-1.4631-.8542-2.3411-.8542h-23.1757v-4.375h11.5878v-5.8334c-4.4696-2.0416-9.6013-4.375-14.8986-4.375s-10.4291 2.3334-14.8987 4.375v5.8334h11.5879v4.375h-23.1757c-.8781 0-1.7202.3073-2.3411.8542-.6209.547-.96973 1.2889-.96973 2.0624v8.75h-3.31081c-.87808 0-1.7202.3073-2.3411.8543s-.96971 1.2888-.96971 2.0624v11.6667c0 .7735.34881 1.5154.96971 2.0624.6209.5469 1.46302.8542 2.3411.8542h13.24324c.8781 0 1.7202-.3073 2.3411-.8542.6209-.547.9697-1.2889.9697-2.0624v-11.6667c0-.7736-.3488-1.5154-.9697-2.0624s-1.463-.8543-2.3411-.8543h-3.3108v-5.8333h19.8649v5.8333h-3.3109c-.878 0-1.7202.3073-2.3411.8543-.6208.547-.9697 1.2888-.9697 2.0624v11.6667c0 .7735.3489 1.5154.9697 2.0624.6209.5469 1.4631.8542 2.3411.8542h13.2433c.8781 0 1.7202-.3073 2.3411-.8542.6209-.547.9697-1.2889.9697-2.0624v-11.6667c0-.7736-.3488-1.5154-.9697-2.0624s-1.463-.8543-2.3411-.8543h-3.3108v-5.8333h19.8648v5.8333h-3.3108c-.8781 0-1.7202.3073-2.3411.8543s-.9697 1.2888-.9697 2.0624v11.6667c0 .7735.3488 1.5154.9697 2.0624.6209.5469 1.463.8542 2.3411.8542h13.2433c.8781 0 1.7202-.3073 2.3411-.8542.6209-.547.9697-1.2889.9697-2.0624v-11.6667c0-.7736-.3488-1.5154-.9697-2.0624s-1.463-.8543-2.3411-.8543zm-56.2838 11.6667h-6.62163v-5.8333h6.62163zm26.4865 0h-6.6216v-5.8333h6.6216zm26.4865 0h-6.6217v-5.8333h6.6217z"/></g></svg>

<svg width="80" height="70" viewBox="0 0 80 70" fill="none" xmlns="http://www.w3.org/2000/svg">
<g clip-path="url(#clip0_397_450)">
<path d="M39.7302 17.5C44.3014 17.5 48.0072 14.2354 48.0072 10.2083C48.0072 6.18122 44.3014 2.91663 39.7302 2.91663C35.1589 2.91663 31.4531 6.18122 31.4531 10.2083C31.4531 14.2354 35.1589 17.5 39.7302 17.5Z" fill="#FE860C"/>
<path d="M72.8376 46.6666H69.5268V37.9166C69.5268 37.1431 69.1779 36.4012 68.5571 35.8542C67.9362 35.3073 67.094 35 66.216 35H43.0403V30.625H54.6281V24.7916C50.1585 22.75 45.0268 20.4166 39.7295 20.4166C34.4322 20.4166 29.3004 22.75 24.8308 24.7916V30.625H36.4187V35H13.243C12.3649 35 11.5228 35.3073 10.9019 35.8542C10.281 36.4012 9.93217 37.1431 9.93217 37.9166V46.6666H6.62136C5.74328 46.6666 4.90116 46.9739 4.28026 47.5209C3.65936 48.0679 3.31055 48.8097 3.31055 49.5833V61.25C3.31055 62.0235 3.65936 62.7654 4.28026 63.3124C4.90116 63.8593 5.74328 64.1666 6.62136 64.1666H19.8646C20.7427 64.1666 21.5848 63.8593 22.2057 63.3124C22.8266 62.7654 23.1754 62.0235 23.1754 61.25V49.5833C23.1754 48.8097 22.8266 48.0679 22.2057 47.5209C21.5848 46.9739 20.7427 46.6666 19.8646 46.6666H16.5538V40.8333H36.4187V46.6666H33.1078C32.2298 46.6666 31.3876 46.9739 30.7667 47.5209C30.1459 48.0679 29.797 48.8097 29.797 49.5833V61.25C29.797 62.0235 30.1459 62.7654 30.7667 63.3124C31.3876 63.8593 32.2298 64.1666 33.1078 64.1666H46.3511C47.2292 64.1666 48.0713 63.8593 48.6922 63.3124C49.3131 62.7654 49.6619 62.0235 49.6619 61.25V49.5833C49.6619 48.8097 49.3131 48.0679 48.6922 47.5209C48.0713 46.9739 47.2292 46.6666 46.3511 46.6666H43.0403V40.8333H62.9051V46.6666H59.5943C58.7162 46.6666 57.8741 46.9739 57.2532 47.5209C56.6323 48.0679 56.2835 48.8097 56.2835 49.5833V61.25C56.2835 62.0235 56.6323 62.7654 57.2532 63.3124C57.8741 63.8593 58.7162 64.1666 59.5943 64.1666H72.8376C73.7157 64.1666 74.5578 63.8593 75.1787 63.3124C75.7996 62.7654 76.1484 62.0235 76.1484 61.25V49.5833C76.1484 48.8097 75.7996 48.0679 75.1787 47.5209C74.5578 46.9739 73.7157 46.6666 72.8376 46.6666ZM16.5538 58.3333H9.93217V52.5H16.5538V58.3333ZM43.0403 58.3333H36.4187V52.5H43.0403V58.3333ZM69.5268 58.3333H62.9051V52.5H69.5268V58.3333Z" fill="#FE860C"/>
</g>
<defs>
<clipPath id="clip0_397_450">
<rect width="79.4595" height="70" fill="white"/>
</clipPath>
</defs>
</svg>
